assets/Telephone receiver/Flat/telephone_receiver_flat.svg

<svg width="32" height="32" viewBox="0 0 32 32" fill="none" xmlns="http://www.w3.org/2000/svg">
<path d="M29.72 25.8394L25.1 23.5L22.59 18.7094C22.28 18.3994 21.79 18.3394 21.41 18.5694C20.14 19.3394 19.16 20.5594 18.71 21.9994C18.48 22.7194 17.64 23.0494 16.99 22.6594L16.98 22.6494L16.97 22.6394C13.85 20.7694 11.23 18.1494 9.36 15.0294C9.36 15.0194 9.35 15.0094 9.35 15.0094C8.95 14.3594 9.28 13.5194 10 13.2894C11.45 12.8394 12.67 11.8594 13.43 10.5894C13.66 10.2094 13.6 9.72941 13.29 9.40941L8.5 7L6.16 2.27941C5.85 1.96941 5.36 1.90941 4.98 2.13941C3.26 3.16941 2.1 5.01941 2.01 7.14941V7.15941C2 7.25941 2 7.35941 2 7.45941C2 7.59941 2.01 7.72941 2.02 7.85941C2.14 11.8194 3.27 15.6794 5.31 19.0794C7.18 22.1994 9.8 24.8194 12.92 26.6894L12.93 26.6994C16.37 28.7694 20.29 29.8994 24.3 29.9894C24.38 29.9894 24.46 29.9994 24.54 29.9994C24.58 29.9994 24.63 29.9994 24.67 29.9994C24.73 29.9994 24.78 29.9994 24.84 29.9994H25.1V29.9794C27.12 29.8094 28.87 28.6694 29.87 27.0194C30.09 26.6394 30.03 26.1494 29.72 25.8394Z" fill="#F8312F"/>
<path d="M13.4401 10.5894C13.0601 11.2194 12.5701 11.7694 12.0001 12.2294L3.34009 3.56941C3.80009 2.99941 4.35009 2.51941 4.98009 2.13941C5.36009 1.90941 5.85009 1.96941 6.16009 2.27941L13.3001 9.40941C13.6101 9.72941 13.6701 10.2094 13.4401 10.5894ZM21.4001 18.5695C21.7801 18.3395 22.2701 18.3995 22.5801 18.7095L29.7101 25.8595C30.0301 26.1695 30.0901 26.6495 29.8601 27.0295C29.4801 27.6595 28.9901 28.2095 28.4201 28.6695L19.7601 20.0095C20.2201 19.4395 20.7701 18.9495 21.4001 18.5695Z" fill="#BB1D80"/>
</svg>

<svg xmlns="http://www.w3.org/2000/svg" width="32" height="32" fill="none"><path fill="#F8312F" d="M29.72 25.84 25.1 23.5l-2.51-4.79a.967.967 0 0 0-1.18-.14 6.198 6.198 0 0 0-2.7 3.43c-.23.72-1.07 1.05-1.72.66l-.01-.01-.01-.01a22.171 22.171 0 0 1-7.61-7.61c0-.01-.01-.02-.01-.02-.4-.65-.07-1.49.65-1.72a6.13 6.13 0 0 0 3.43-2.7c.23-.38.17-.86-.14-1.18L8.5 7 6.16 2.28a.967.967 0 0 0-1.18-.14 6.127 6.127 0 0 0-2.97 5.01v.01c-.01.1-.01.2-.01.3 0 .14.01.27.02.4a23.16 23.16 0 0 0 3.29 11.22c1.87 3.12 4.49 5.74 7.61 7.61l.01.01c3.44 2.07 7.36 3.2 11.37 3.29.08 0 .16.01.24.01h.56v-.02a6.187 6.187 0 0 0 4.77-2.96c.22-.38.16-.87-.15-1.18Z"/><path fill="#BB1D80" d="M13.44 10.59c-.38.63-.87 1.18-1.44 1.64L3.34 3.57C3.8 3 4.35 2.52 4.98 2.14c.38-.23.87-.17 1.18.14l7.14 7.13c.31.32.37.8.14 1.18Zm7.96 7.98c.38-.23.87-.17 1.18.14l7.13 7.15c.32.31.38.79.15 1.17-.38.63-.87 1.18-1.44 1.64l-8.66-8.66c.46-.57 1.01-1.06 1.64-1.44Z"/></svg>
